expansion-card-variant.svg

<svg fill="currentColor" viewBox="0 0 24 24"><path d="M2 7h2.5v10H3V8.5H2M22 7v9h-8v1H7v-1H6V7m4 2H8v3h2m3-3h-2v3h2m7-3h-5v5h5z"/></svg>

<svg  viewBox="0 0 24 24" fill="currentColor"><path  d="M2 7H4.5V17H3V8.5H2M22 7V16H14V17H7V16H6V7M10 9H8V12H10M13 9H11V12H13M20 9H15V14H20V9Z"/></svg>
